X:1
T:40
L:1/8
Q:1/4=100
M:2/4
K:Dmin
V:1 treble nm="Piano" snm="Pno."
V:1
"^Moderato" a a2 d/c/ | aa dc | aa c>d | d4 | (c>d) f2 | ae dc | AA/G/ (Ac) | d4 | a (a2 d/c/) | %9
 aa dc | a2 (c/d/f/e/) | d4 | (GG A{c}c) | G(G A{/d}c) |({/c} G3 A/c/) |{/c} G4 |{c} A>f{f} ed/c/ | %17
{/c} F4 |] %18

